X: 1
T: The Exile Of Erin
R: reel
M: 4/4
L: 1/8
K: Dmix
DE|:FGAG FDDE|FGAG FDFA|de=fe dcAG|FGAB c2AG|
FGAG FDDE|FDAG FDCD|G,A,CD E~A,3|1 FAGE {G}EDDE:|2 FAGE {G}EDFA||
|:dfed cAGc|(3AcA GA FAEA|dfed ^cdef|geag (3faf e^c|
dfed cAGc|(3AcA GA FAEA|D2FA c2AG|1 FAGE {G}EDFA:|2 FAGE {G}EDDE|]


Tune 1293	Setting 21037

